src/components/ae-icon/icons/square.svg

<?xml version="1.0" encoding="UTF-8"?>
<svg width="24px" height="24px" viewBox="0 0 24 24" version="1.1" xmlns="http://www.w3.org/2000/svg" xmlns:xlink="http://www.w3.org/1999/xlink">
    <!-- Generator: Sketch 52.1 (67048) - http://www.bohemiancoding.com/sketch -->
    <title>square</title>
    <desc>Created with Sketch.</desc>
    <defs>
        <path d="M5,4 C4.44771525,4 4,4.44771525 4,5 L4,19 C4,19.5522847 4.44771525,20 5,20 L19,20 C19.5522847,20 20,19.5522847 20,19 L20,5 C20,4.44771525 19.5522847,4 19,4 L5,4 Z M5,2 L19,2 C20.6568542,2 22,3.34314575 22,5 L22,19 C22,20.6568542 20.6568542,22 19,22 L5,22 C3.34314575,22 2,20.6568542 2,19 L2,5 C2,3.34314575 3.34314575,2 5,2 Z" id="path-1"></path>
    </defs>
    <g id="square" stroke="none" stroke-width="1" fill="none" fill-rule="evenodd">
        <mask id="mask-2" fill="white">
            <use xlink:href="#path-1"></use>
        </mask>
        <use id="Rectangle-path" fill="#000000" fill-rule="nonzero" xlink:href="#path-1"></use>
    </g>
</svg>

<svg width="24" height="24" xmlns="http://www.w3.org/2000/svg" xmlns:xlink="http://www.w3.org/1999/xlink"><defs><path d="M5 4a1 1 0 0 0-1 1v14a1 1 0 0 0 1 1h14a1 1 0 0 0 1-1V5a1 1 0 0 0-1-1H5zm0-2h14a3 3 0 0 1 3 3v14a3 3 0 0 1-3 3H5a3 3 0 0 1-3-3V5a3 3 0 0 1 3-3z" id="a"/></defs><use fill="#000" fill-rule="nonzero" xlink:href="#a"/></svg>
